X: 14210
T: Full Moon
R: reel
M: 4/4
K: Bminor
"Bm"FBAB "Bm"dBAB|"F#m"FBdB "G"=GBdB|"A"Acec "A"fede|"F#m"~f3e "F#m"fedB|
"Bm"FBAB "Bm"dBAB|"F#m"FBdB "G"=GBdB|"A"Acec "A"fedc|"F#m"~B3A "F#m"BdcA:|
|:"Em"F~=G2F "Em"=GABc|"G"dded "G"cdcA|"A"cd cA "A"eAfA|"A"=gAfA "A"e~f2A|
"Em"F~=G2F "Em"=GABc|"G"dded "G"cdcA|"A"cd cA "A"fedc|"F#m"~B3A "F#m"BdcA:|

